svg/black/cvc.svg

<svg xmlns="http://www.w3.org/2000/svg" width="32" height="32" viewBox="0 0 32 32">
  <path d="M16,32 C7.163444,32 0,24.836556 0,16 C0,7.163444 7.163444,0 16,0 C24.836556,0 32,7.163444 32,16 C32,24.836556 24.836556,32 16,32 Z M17.1611168,16.7785 C17.976371,16.3838838 18.4925497,15.5666464 18.4916751,14.6719 C18.4916751,13.3778 17.4294416,12.329 16.120203,12.329 C14.8109645,12.329 13.7482234,13.3777 13.7482234,14.6718 C13.7471759,15.5668731 14.2638948,16.384342 15.079797,16.7784 L15.079797,19.672 L17.1610152,19.672 L17.1610152,16.7785 L17.1611168,16.7785 Z M16.1203046,23.5 C11.9348223,23.5 8.53015228,20.1358 8.53015228,16 C8.53015228,11.8642 11.9353299,8.5006 16.1203046,8.5006 C19.535736,8.5006 22.4307614,10.7406 23.3806091,13.8122 L25.9965482,13.8122 C24.9872081,9.3417 20.9486294,6 16.1203046,6 C10.531066,6 6,10.4771 6,16 C6,21.5229 10.531066,26 16.1203046,26 C20.9486294,26 24.9872081,22.6583 25.9966497,18.1877 L23.3807107,18.1877 C22.4301523,21.26 19.535736,23.5 16.1203046,23.5 Z"/>
</svg>

<svg xmlns="http://www.w3.org/2000/svg" width="32" height="32"><path d="M16 32C7.163 32 0 24.837 0 16S7.163 0 16 0s16 7.163 16 16-7.163 16-16 16zm1.161-15.221a2.342 2.342 0 0 0 1.33-2.107c0-1.294-1.062-2.343-2.37-2.343-1.31 0-2.373 1.049-2.373 2.343a2.34 2.34 0 0 0 1.332 2.106v2.894h2.081v-2.893zm-1.04 6.721c-4.186 0-7.59-3.364-7.59-7.5s3.404-7.5 7.59-7.5c3.415 0 6.31 2.24 7.26 5.312h2.616C24.987 9.342 20.949 6 16.12 6 10.531 6 6 10.477 6 16s4.531 10 10.12 10c4.829 0 8.867-3.342 9.877-7.812H23.38c-.95 3.072-3.845 5.312-7.26 5.312z"/></svg>
